X: 47
T:Gan Ainm
M:4/4
L:1/8
S:Dermot Byrne, Donegal (Accordian)
R:Highland
D:Tape of Concert, Teelin, Donegal
Z:Bernie Stocks
K:A
cd ||(3efe ^de ceBe | A2cA EAcA |(3efe ^de ceBa |(3gfe (3dcB (3Ace (3agf |\
(3efe ^de ceBe | A2cA EAcA | (3efe ^de ceBa | (3gfe (3dcB A2ce ||\
aAcA eAcA | dcde fBB2 | aAcA eAca | (3gfe (3dcB A2ce |\
aAcA eAcA | dcde fBB2 | aAcA eAca | (3gfe (3dcB A4 ||
<end>
<start>
